images/icon-menu-hover.svg

<svg height="42" viewBox="0 0 42 42" width="42" xmlns="http://www.w3.org/2000/svg"><path d="m22 0h-18c-2.209139 0-4 1.790861-4 4v16c0 2.209139 1.790861 4 4 4h18c2.209139 0 4-1.790861 4-4v-16c0-2.209139-1.790861-4-4-4zm-2 18h-14v-2h14zm0-5h-14v-2h14zm0-5h-14v-2h14z" fill="#fff" fill-rule="evenodd" transform="translate(8 7)"/></svg>

<?xml version="1.0" encoding="UTF-8" standalone="no"?>
<svg width="42px" height="42px" viewBox="0 0 42 42" version="1.1" xmlns="http://www.w3.org/2000/svg" xmlns:xlink="http://www.w3.org/1999/xlink">
    <!-- Generator: Sketch 3.6.1 (26313) - http://www.bohemiancoding.com/sketch -->
    <title>icon-menu-hover</title>
    <desc>Created with Sketch.</desc>
    <defs></defs>
    <g id="Page-1" stroke="none" stroke-width="1" fill="none" fill-rule="evenodd">
        <g id="icon-menu-hover" fill="#FFFFFF">
            <g id="icon-menu" transform="translate(8.000000, 7.000000)">
                <path d="M22,0 L4,0 C1.790861,0 0,1.790861 0,4 L0,20 C0,22.209139 1.790861,24 4,24 L22,24 C24.209139,24 26,22.209139 26,20 L26,4 C26,1.790861 24.209139,0 22,0 L22,0 Z M20,18 L6,18 L6,16 L20,16 L20,18 L20,18 Z M20,13 L6,13 L6,11 L20,11 L20,13 L20,13 Z M20,8 L6,8 L6,6 L20,6 L20,8 L20,8 Z" id="Shape"></path>
            </g>
        </g>
    </g>
</svg>
